X: 1023
T: Whistling Rufus
B: jims roots
M:C |
L:1/8
R: Cakewalk
Q: 1/4=100
K:G
V:1 
%C:Kerry Mills (1899)
DF|:"G"GFGA Bdef | gedB edBA | GEDC B,CDG | Bd2 e "D"dBAF |
"G"GDGA BGBc | dBga g2d2 | "A"fa2 ba2 fg |abfa "D"fdBA |
"G"GFGA BGBc | dBga gdBA | GEDC B,CDG | Bd2 e "D"dBde |
"C"cded efge | "G"dBed BGEG | BdBG "D"FGAF |[1 "G"G6 DF:|[2 "G"G2D2G2B2||
"G"[B4d]([B4d | [B2d]) de d2[G2B] | "D"[F4A]([F4A] | [F2A]) FG F2D2 | "C"[[E4c] ([G4c]
"C"E3 G (E4 | E2) eg e2 c2 |"G"B3 d BAG2 | "D"^FGAd BA F2 | "G"G6 |]
V:Gc 
)D (3EFE D2 C2 | "G"B,3 C (B,4 | B,2) D2 G2 A2 | "G7"[=F4B] [(F4B] | [FB])G=FD G2 F2 |
% abcbook-tune_id 6298c2977fc41aba4f1b5bc2


% abcbook-boost 0
% abcbook-tablature 
% abcbook-transpose 
% abcbook-lastupdated 1654178456879
% abcbook-soundfonts 
% abcbook-repeats 1


